icon/lg/hack.svg

<svg width="256" height="381" xmlns="http://www.w3.org/2000/svg" preserveAspectRatio="xMidYMid"><path d="m131.015 126.065 117.088.003-117.088 115.396V126.065" fill="#FFF"/><path d="M.002 256.489h116.672L.002 374.955V256.489M.001 119.581 121.948 0l.061 121.501L.001 243.185V119.581M256.001 131.733v124.388L131.02 380.188V255.832l124.981-124.099Z" fill="#868686"/><path d="m121.909 246.908-113.513-.003L121.909 133.32v113.588" fill="#F7852F"/></svg>

<?xml version="1.0" encoding="UTF-8" standalone="no"?>
<svg viewBox="0 0 256 381" version="1.1" xmlns="http://www.w3.org/2000/svg" xmlns:xlink="http://www.w3.org/1999/xlink" preserveAspectRatio="xMidYMid" height="1em" width="1em">
  <g>
    <path d="M131.015,126.065 L248.103,126.068 L131.015,241.464 L131.015,126.065" fill="#FFFFFF"/>
    <path d="M0.002,256.489 L116.674,256.489 L0.002,374.955 L0.002,256.489" fill="#868686"/>
    <path d="M0.001,119.581 L121.948,0 L122.009,121.501 L0.001,243.185 L0.001,119.581" fill="#868686"/>
    <path d="M256.001,131.733 L256.001,256.121 L131.02,380.188 L131.02,255.832 L256.001,131.733 L256.001,131.733 Z" fill="#868686"/>
    <path d="M121.909,246.908 L8.396,246.905 L121.909,133.32 L121.909,246.908" fill="#F7852F"/>
  </g>
</svg>
